Newaita/actions/16/media-playback-start.svg

<svg height="16" viewBox="0 0 16 16" width="16" xmlns="http://www.w3.org/2000/svg"><path d="m3.308594 2.113281c-.371094-.007812-.671875.289063-.671875.65625v10.585938c0 .503906.546875.824219.984375.570312l9.261718-5.289062c.441407-.253907.441407-.890625 0-1.144531l-9.261718-5.292969c-.09375-.054688-.203125-.085938-.3125-.085938zm0 0" fill="#424242"/></svg>

<svg xmlns="http://www.w3.org/2000/svg" xmlns:xlink="http://www.w3.org/1999/xlink" width="16px" height="16px" viewBox="0 0 16 16" version="1.1">
<g id="surface1">
     <defs>
  <style id="current-color-scheme" type="text/css">
   .ColorScheme-Text { color:#424242; } .ColorScheme-Highlight { color:#eeeeee; }
  </style>
 </defs>
<path style="fill:currentColor" class="ColorScheme-Text" d="M 3.308594 2.113281 C 2.9375 2.105469 2.636719 2.402344 2.636719 2.769531 L 2.636719 13.355469 C 2.636719 13.859375 3.183594 14.179688 3.621094 13.925781 L 12.882812 8.636719 C 13.324219 8.382812 13.324219 7.746094 12.882812 7.492188 L 3.621094 2.199219 C 3.527344 2.144531 3.417969 2.113281 3.308594 2.113281 Z M 3.308594 2.113281 "/>
</g>
</svg>
